X:21
T:(Cauld Kail) A way instead of the gatherings in the second measure
S:George Skene's MS, NLS Adv.MS.5.2.21, 1715
Z:Jack Campin 1998
M:4/4
L:1/8
K:D
a|\
("//"cA)("//"cA) ("//"BG)dB|("//"cA)("//"cA) ("||"cA)ae|\
("="cA)("="cA) ("||"BG)dB|("//"cA)("||"cf) "="e2d:|
